F[ERK3
CUT[ALLEMAL KANN MAN NIT LUSTIG SEIN]
REG[Europa, Mitteleuropa, Deutschland, Schwaben]
KEY[E1390  16  G 3/8]
MEL[  1_.11_  3_2_1_  5_.-5-5_  5_.-5-5_
    1_.11_  3_2_1_  5__.  ^__0_
    4_.56_  6_5_4_  3_345_  2_234_
    1_.11_  -7_-6_-7_  1__.  ^__0_
    4_.56_  6_5_4_  3_345_  2_234_
    1_.11_  -7_-6_-7_  1__.  ^__0_ //] >>
FCT[Staende -, Soldaten - Lied, Scherz]
